logos/archlinux.svg

<?xml version="1.0" encoding="UTF-8"?>
<svg width="256px" height="256px" viewBox="0 0 256 256" version="1.1" xmlns="http://www.w3.org/2000/svg" xmlns:xlink="http://www.w3.org/1999/xlink" preserveAspectRatio="xMidYMid">
    <g>
        <path d="M127.975926,0 C116.579432,27.9359185 109.705619,46.2092913 97.0171149,73.31478 C104.796757,81.5596475 114.3459,91.1612076 129.853677,102.005265 C113.181296,95.1459732 101.808692,88.2594065 93.3097611,81.1132005 C77.0708968,114.991716 51.6292657,163.250154 0,256 C40.5788694,232.577519 72.0348875,218.137309 101.350386,212.627303 C100.091566,207.21416 99.3758778,201.35879 99.4244875,195.249342 L99.4726349,193.949605 C100.116527,167.956688 113.640566,147.968131 129.661087,149.32531 C145.681616,150.68249 158.134196,172.866789 157.490314,198.859722 C157.369214,203.750768 156.817421,208.4559 155.853301,212.819857 C184.850516,218.491161 215.970178,232.894401 256,256 C248.106899,241.470984 241.061625,228.374136 234.333647,215.900715 C223.735984,207.688365 212.6821,196.999962 190.134286,185.429109 C205.632358,189.455404 216.728781,194.100675 225.378221,199.292967 C156.972972,71.9582954 151.433611,55.0381461 127.975926,0 Z" fill="#1793D1"></path>
    </g>
</svg>

<svg width="256" height="256" xmlns="http://www.w3.org/2000/svg" preserveAspectRatio="xMidYMid">
	<path d="M127.976 0c-11.397 27.936-18.27 46.21-30.959 73.315 7.78 8.245 17.329 17.846 32.837 28.69-16.673-6.859-28.045-13.746-36.544-20.892C77.07 114.992 51.63 163.25 0 256c40.579-23.422 72.035-37.863 101.35-43.373a74.264 74.264 0 0 1-1.926-17.378l.049-1.3c.644-25.992 14.168-45.98 30.188-44.624 16.02 1.357 28.473 23.542 27.83 49.535-.122 4.89-.674 9.596-1.638 13.96C184.851 218.49 215.97 232.894 256 256c-7.893-14.529-14.938-27.626-21.666-40.1-10.598-8.212-21.652-18.9-44.2-30.47 15.498 4.025 26.595 8.67 35.244 13.863C156.973 71.958 151.434 55.038 127.976 0Z" fill="#1793D1"/>
</svg>
